X: 249
T: Ben Gamlı Hazan Sense Bahar
C: Melahat Pars
O: Turkey
F: http://compmusic.upf.edu/node/140
N: hicaz--sarki--aksak--ben_gamli_hazan--melahat_pars
N: makam= hicaz
N: form= sarki
N: usul= aksak = 9/8
M: 9/8
L: 1/16
K: C _7/8B ^f ^c 
Q: 1/4=132
%%MIDI tuningsystem comma53
A4 c4 B2c2 A6 | d4c2 d2e8a2  | g2=f2 e2d2 c2B2 A2B2 c2 | \
w:  Ben  gam lı  ha zan   |  sen se  ba har   |  din *  le  de  vaz  | 
A6 Bcdd cBA4z2  | 
w:  geç   SAZ  | 
g2=fe d2f2 e2d2 c2d2 ed | d6 e=fed cBA4z2  | \
w:  din *  *  le  de  vaz  |  geç   SAZ  | 
A4 c4 B2c2 A6 | 
w:  Ben  gam lı  ha zan   | 
d4c2 d2e8a2  | g2=f2 e2d2 c2B2 A2B2 c2 | \
w:  sen se  ba har   |  din *  le  de  vaz  | 
A6 Bcdd cBA4z2  | 
w:  geç   SAZ  | 
g2=fe d2f2 e2d2 c2d2 ed | d6 A2BA Bcd4z2  | \
w:  din *  *  le  de  vaz  |  geç   SAZ  | 
d4 a4 g2a2 g2=fe d2 | 
w:  Sen  ken di ne  ken  | 
g2 =fed2 efed cBc4z2  | d4 e2=f2 e2d2 c2B2 AB | 
w:  din  *  *  gi bi  *  bir   |  ta ze  ba har   | 
B8AB cAB4A2  | d2cB A2=f2 e2d2 c2B2 c2 | \
w:  seç   SAZ  |  ta *  *  ze  ba har   | 
A6 e=fed dcd4z2  | 
w:  seç   SAZ  | 
d4 a4 g2a2 g2=fe d2 | g2 =fed2 efed cBc4z2  | \
w:  Sen  ken di ne  ken  |  din  *  *  gi bi  *  bir   | 
d4 e2=f2 e2d2 c2B2 AB | 
w:  ta ze  ba har   | 
B8AB cAB4A2  | d2cB A2=f2 e2d2 c2B2 c2 | \
w:  seç   SAZ  |  ta *  *  ze  ba har   | 
A6 a2^g4a6  | 
w:  seç   SAZ  | 
a4 a4 =f2^g2 a6 | f3ag2 f^3/4ef8z2  | \
w:  Ol maz  me le ğim   |  böy *  le  bir  *  aşk   | 
d3e e2e2 e2a2 ag=f2 fe | 
w:  ben *  de  va kit   | 
e6 d2c3BA6  | A3B c2d2 e2=fg agf2 fe | \
w:  geç    |  ben *  de  va kit   | 
e6 e=fed cde4z2  | 
w:  geç   SAZ  | 
d4 a4 g2a2 g2=fe d2 | g2 =fed2 efed cBc4z2  | \
w:  Sen  ken di ne  ken  |  din  *  *  gi bi  *  bir   | 
d4 e2=f2 e2d2 c2B2 AB | 
w:  ta ze  ba har   | 
B8AB cAB4A2  | d2cB A2=f2 e2d2 c2B2 c2 | \
w:  seç   SAZ  |  ta *  *  ze  ba har   | 
A6 e=fed dcd4z2  | 
w:  seç   SAZ  | 
d4 a4 g2a2 g2=fe d2 | g2 =fed2 efed cBc4z2  | \
w:  Sen  ken di ne  ken  |  din  *  *  gi bi  *  bir   | 
d4 e2=f2 e2d2 c2B2 AB | 
w:  ta ze  ba har   | 
B8AB cAB4A2  | d2cB A2=f2 e2d2 c2B2 c2 | \
w:  seç   SAZ  |  ta *  *  ze  ba har   | 
A6 |
w:  seç    | 


